X:1
M:4/4
K:B
|:B/2|c/2c/2e/2c/2 e/2c/2e/2d/2|f/2g/2f/2d/2 A/2G/2B/2c/2|\
A/2B/2A/2c/2 e/2d/2c/2B/2|
A/2G/2B/2A/2 A/2F/2E/2D/2|F/2A/2B/2d/2 f/2e/2d/2c/2|\
B/2G/2G/2B/2 d/2B/2G/2B/2|A/2G/2E/2F/2 D::
B|d3/2e/2 gg/2f/2|e/2c/2A/2c/2 e/2c/2B/2d/2|\
ca/2f/2 d/2c/2B/2A/2|G/2A/2B/2c/2 dd/2c/2|\
d/2e/2d/2c/2 Bd/2c/2|
B/2A/2G/2B/2 A3/2B/2|c/2e/2d/2c/2|B/2A/2c/2B/2|
A/2d/2d/2B/2 Ad|d3/2A/2 Be/2f/2|\
g3/2e/2 d/2B/2G/2A/2|de A:|